X:3
T:Traditional Reel
R:reel
B:The Cape Breton Fiddler
D:Kinnon & Betty Beaton, Cape Breton Fiddle Compilation
S:Dave MacIsaac
Z:Paul Stewart Cranford (P.S.C.), <http://www.cranfordpub.com>
L:1/8
M:C|
Q:333
K:Ador
a|eABd e2 dc|BAGb agea|eABd e2 dc|BAGB A/A/A A:|
|:B|eaag abae|gage degd|eaag e2 dc|BAGB A/A/A A:|
